!!!!SEGMENT: ss053-OrientalVeilDance_M.krn
!!!COM: J.S.ZAMECNIK
!!!OTL: Oriental Veil Dance
!!!OPR:Sam Fox Moving Picture Music, Volume1
!!!YOY:1913
!!!ONB: National
**kern	**dynam
*>[A,A1,A2,B,B,C,C1,C,C2]	*>[A,A1,A2,B,B,C,C1,C,C2]
*>A	*>A
*clefG2	*
*k[]	*
*a:	*
*M2/2	*
*met(c|)	*
!LO:TX:a:B:t=Moderato	!
4e	p
=1	=1
8aL	.
8g#X	.
8a	.
8bJ	.
8ccL	.
8b	.
8cc	.
8ddJ	.
=2	=2
(4ee	.
8aa)	.
8r	.
(4ff	.
8aa)	.
8r	.
=3	=3
2ee	<
2ee	[[
=4	=4
2.ee	>
4e	]]
=5	=5
8aL	.
8g#X	.
8a	.
8bJ	.
8ccL	.
8b	.
8cc	.
8ddJ	.
=6	=6
(4ee	.
8aa)	.
8r	.
(4ff	.
8dd)	.
8r	.
=7	=7
2b	<
2b	[[
=8	=8
2.b	>
4e	]]
=9	=9
8aL	.
8g#X	.
8a	.
8bJ	.
8ccL	.
8b	.
8cc	.
8ddJ	.
=10	=10
(4ee	.
8aa)	.
8r	.
(4ff	.
8aa)	.
8r	.
=11	=11
2ee	<
2ee	[
=12	=12
2.ee	>
4ee	]
=13	=13
(8aaL	mf
8bb	.
8aa	.
8eeJ)	.
(8ggL	.
8aa	.
8gg	.
8ddJ)	.
=14	=14
(8ffL	.
8gg	.
8ff	.
8ccJ)	.
2ee	.
=15	=15
(8bL	.
8cc	.
8ee	.
8ddJ)	.
4cc	.
4b	.
*>A1	*>A1
=16	=16
2.a	.
=17:|!	=17:|!
*>A2	*>A2
2.a	.
4r	.
=18!|:	=18!|:
*>B	*>B
2g	mf
2cc	.
=19	=19
2dd	.
2gg	.
=20	=20
8aaL	.
8gg	.
8ee	.
8ddJ	.
8ccL	.
8dd	.
8ee	.
8ccJ	.
=21	=21
8ddL	.
8ee	.
8dd	.
8ccJ	.
2a	.
=22	=22
2g	<
2cc	.
=23	=23
2b	.
2ee	[[
=24	=24
8ff#XL	f
8gg#X	.
8ff#	.
8bJ	.
2bb	.
=25	=25
8gg#XL	.
8aa	.
8gg#	.
8eeJ	.
2eee	.
=26	=26
8ddL	mf
8ee	.
8ff	.
8ggJ	.
4aa	.
4aa	.
=27	=27
2aa	.
2cc	.
=28	=28
8r	.
8bL	.
8cc	.
8ddJ	.
4ee	.
4ee	.
=29	=29
1ee	.
=30	=30
8fL	<
8g	.
8a	.
8bJ	.
4cc	.
4cc	[[
=31	=31
2cc	.
2a	.
=32	=32
2.b	>
4cc	]]
=33	=33
2.a	.
4r	.
*k[]	*
*C:	*
=34:|!|:	=34:|!|:
*>C	*>C
2ee	p
8ddL	.
8cc	.
8a	.
8ccJ	.
=35	=35
2ee	.
8ddL	.
8cc	.
8a	.
8ccJ	.
=36	=36
2ee	<
2gg	[[
=37	=37
1gg	>]
=38	=38
2gg	.
4ff	.
8eeL	.
8ffJ	.
=39	=39
2gg	.
2ee	.
*>C1	*>C1
=40	=40
2ee	<
8aL	.
8bJ	.
4cc	[
=41	=41
1dd	>]
*>C2	*>C2
=42:|!	=42:|!
8ddL	<
8ee	.
8dd	.
8ccJ	.
4a	[
4b	.
=43	=43
2.cc	>
4r	]
!LO:TX:b:rj:Bi:t=D.C.	!
=||	=||
*-	*-
!!!ENC: Yukiko Yoden
!!!END: 2022/03/21